www/assets/icons/functions.svg

<svg xmlns="http://www.w3.org/2000/svg" width="24" height="24" viewBox="0 0 24 24" fill='currentColor'><path d="M18 4H6v2l6.5 6L6 18v2h12v-3h-7l5-5-5-5h7z"/></svg>

<svg width="24" height="24" viewBox="0 0 24 24" xmlns="http://www.w3.org/2000/svg" fill='currentColor'><path d="M18 4H6V6L12.5 12L6 18V20H18V17H11L16 12L11 7H18V4Z"/></svg>
